X: 1
T: John Kelly's
M: 2/4
L: 1/8
R: polka
K: Ador
A>B|cE ED|cd e>d|cE BA|G2 GA/B/|
cE ED|cd e>d|cA B/A/G|A2:|Ac/d/||
ea a>b|ag ed|^cd ef|g2 fg|
ea a>b|ag ed|~c2 BG|A2 Ac/d/|
ea a>b|ag ed|^cd ef|g2 fg|
a/g/f g/f/e|fd e>d|^cA BG|A2|
